X:352
T:Bourree limousine
R:bourree 3 temps
C:trad.
A:Limousin
O:France
Z:S. Piron
M:3/8
L:1/16
Q:1/4=90
K:G
ef|g2e2f2|d2BdBd|cBABcd|e2d2ef|g2f2e2|d2BdBd|cBABcA|1G2Bd:|2G6|
|:A3GAB|cAB2G2|Bcd2e2|e2d4|efg2e2|d2BdBd|1c2AcAc|B2A2G2:|2cBABcA|G4 z2||
